X:02
T:Soldiers Joy
S:Jim Coon to CoMandoList TOW
R:Reel
O:USA
O:Shetland
O:Scotland
O:England
O:Denmark
M:4/4
L:1/8
K:D
dB|AFDF AFDF|A2d2 d2cB|AFDF AFDF|G2E2 E2A2|!
AFDF AFDF|A2d2 d2de|fafd egec|d2d2 d2:|!
|:de|f2fe fagf|edcd efge|f2fe fagf|edcB A2de|!
f2fe fagf|edcd efge|fafd egec|d2d2 d2:|!
